!!!OTL: Schenkenbachs Reuterlied
!!!ARE: Europa, Mitteleuropa, Deutschland
!!!SCT: A0426B
!!!YEM: Copyright 1995, estate of Helmut Schaffrath.
**kern
*ICvox
*Ivox
!! Mixed meters:  4/2; 6/2
*M4/2
*k[b-]
*F:
{2f
=1
2f
2f
2cc
2cc
=2
1dd
1cc}
=3
{1ff
=4
*M6/2
2cc
2cc
2b-
2a
1g
=5
*M4/2
1f
2r}
{2ff
=6
*M6/2
1ff
2ff
2ff
2ff
2ff
=7
1ee
1cc
2r}
{2cc
=8
1a
2a
1b-
2b-
=9
1cc
2r}
==
!!!AGN: Romanze, Ballade, Lied, Kriegslied
!! Schmeltzel 1544 Quodl. 20.
!!!ONB: ESAC (Essen Associative Code) Database: ALTDEU
!!!AMT: irregular
!!!AIN: vox
!!!EED: Helmut Schaffrath
!!!EEV: 1.0
*-
